Origami/64x64/apps/gargoyle-house.svg

<svg width="64" height="64" version="1" xmlns="http://www.w3.org/2000/svg">
 <path d="m55.999632 56.482873v-30.917558l-3.910378-3.939079c-0.958926-0.965963-6.894965-6.232988-8.202458-6.486106l-11.524212-8.571147-13.006225 8.968045c-1.110993 0.766051-6.770201 5.487155-7.697895 6.486106l-3.6580956 3.939079v30.52066c0 1.394488 1.0703836 2.517127 2.3999636 2.517127h43.199338c1.329578 0 2.399962-1.122639 2.399962-2.517127z" style="opacity:.2"/>
 <path d="m55.999632 55.482903v-30.917557l-3.910378-3.93908c-0.958926-0.965963-6.894965-6.232987-8.202458-6.486105l-11.524212-8.5711473-13.006225 8.9680443c-1.110993 0.766052-6.770201 5.487156-7.697895 6.486106l-3.6580956 3.93908v30.520659c0 1.394489 1.0703836 2.517128 2.3999636 2.517128h43.199338c1.329578 0 2.399962-1.122639 2.399962-2.517128z" style="fill:#cccccc"/>
 <rect x="8" y="24" width="48" height="3" style="opacity:.15"/>
 <rect x="10" y="6" width="8" height="14" rx="1.425" ry="1.531" style="fill:#4f4f4f"/>
 <rect x="13" y="32" width="14" height="22" rx="2.1" ry="2.062" style="fill:#956a42"/>
 <path d="m37.541636 32c-1.937581 0-3.541667 1.604086-3.541667 3.541664v9.916669c0 1.937579 1.604086 3.541667 3.541667 3.541667h9.916667c1.937578 0 3.541666-1.604088 3.541666-3.541667v-9.916669c0-1.937578-1.604088-3.541664-3.541666-3.541664h-9.916667z" style="fill:#956a42"/>
 <path d="m37.687502 35.000216c-0.404659 0-0.687502 0.282841-0.687502 0.687501v9.624997c0 0.40466 0.282843 0.687501 0.687502 0.687501h9.624996c0.404659 0 0.687502-0.282841 0.687502-0.687501v-9.624997c0-0.40466-0.282843-0.687501-0.687502-0.687501h-9.624996z" style="fill:#c2eeff"/>
 <circle cx="23.5" cy="43.5" r="1.5" style="opacity:.2"/>
 <circle cx="23.5" cy="42.5" r="1.5" style="fill:#ffffff"/>
 <path d="m12.422354 20.333205c-0.816858 0.678913-1.48837 1.254527-1.756198 1.529504l-3.837417 3.938472v-1.362841h5.593615z" style="opacity:.05"/>
 <path d="m16.999908 15.47351c-1.387614 0.952988-4.049194 2.910401-5.999908 4.421908v4.105135h5.999908z" style="opacity:.15"/>
 <path d="m22.999816 11.73715-5.223553 3.201035c-0.139854 0.08572-0.522996 0.361324-0.776355 0.535325v8.527043h5.999908z" style="opacity:.05"/>
 <path d="m28.999724 8.0581475-5.999908 3.6790025v12.263403h5.999908z" style="opacity:.15"/>
 <path d="m32.406897 5.9687356-3.407173 2.0894119v15.942406h5.999908v-16.316588z" style="opacity:.05"/>
 <path d="m34.999632 7.6839653v16.316588h5.999908v-12.350803z" style="opacity:.15"/>
 <path d="m40.99954 11.64975v12.350803h5.999907v-8.644486c-0.706661-0.437471-1.304294-0.758564-1.625951-0.813914z" style="opacity:.05"/>
 <path d="m46.999447 15.356067v8.644486h5.999908v-4.285399c-1.701402-1.350787-4.239685-3.269391-5.999908-4.359087z" style="opacity:.15"/>
 <path d="m51.577661 20.152942v4.285398h5.593615v0.966809l-4.102349-3.941203c-0.237977-0.228567-0.802222-0.724219-1.491266-1.311004z" style="opacity:.05"/>
 <path d="m32.000008 5.0008442-24.999624 19.999693" style="fill:none;stroke-linecap:round;stroke-linejoin:round;stroke-width:6;stroke:#5d5d5d"/>
 <path d="m32 5.0008442 24.999616 19.999693" style="fill:none;stroke-linecap:round;stroke-linejoin:round;stroke-width:6;stroke:#5d5d5d"/>
 <path d="M 11.425781 6 C 10.63625 6 10 6.6831846 10 7.53125 L 10 8.53125 C 10 7.6831846 10.63625 7 11.425781 7 L 16.574219 7 C 17.36375 7 18 7.6831846 18 8.53125 L 18 7.53125 C 18 6.6831846 17.36375 6 16.574219 6 L 11.425781 6 z" style="fill:#ffffff;opacity:.1"/>
 <path d="m31.933594 1.9746094a3.0003 3.0003 0 0 0 -2.189453 0.9882812l-24.617188 19.695312a3.0003 3.0003 0 0 0 -1.109375 2.867188 3.0003 3.0003 0 0 1 1.109375 -1.867188l24.617188-19.695312a3.0003 3.0003 0 0 1 2.189453 -0.9882812 3.0003 3.0003 0 0 1 0.027344 0.0019531 3.0003 3.0003 0 0 1 0.015624 -0.0019531 3.0003 3.0003 0 0 1 2.28125 0.9882812l24.615235 19.695312a3.0003 3.0003 0 0 1 1.109375 1.869141 3.0003 3.0003 0 0 0 -1.109375 -2.869141l-24.615235-19.695312a3.0003 3.0003 0 0 0 -2.28125 -0.9882812 3.0003 3.0003 0 0 0 -0.015624 0.0019531 3.0003 3.0003 0 0 0 -0.027344 -0.0019531z" style="fill-rule:evenodd;fill:#ffffff;opacity:.1"/>
</svg>

<svg xmlns="http://www.w3.org/2000/svg" width="64" height="64" version="1">
 <path style="opacity:0.2" d="m 55.999632,56.482873 0,-30.917558 -3.910378,-3.939079 C 51.130328,20.660273 45.194289,15.393248 43.886796,15.14013 L 32.362584,6.568983 19.356359,15.537028 c -1.110993,0.766051 -6.770201,5.487155 -7.697895,6.486106 l -3.6580956,3.939079 0,30.52066 C 8.0003684,57.877361 9.070752,59 10.400332,59 l 43.199338,0 c 1.329578,0 2.399962,-1.122639 2.399962,-2.517127 z"/>
 <path style="fill:#cccccc" d="m 55.999632,55.482903 0,-30.917557 -3.910378,-3.93908 C 51.130328,19.660303 45.194289,14.393279 43.886796,14.140161 L 32.362584,5.5690137 19.356359,14.537058 c -1.110993,0.766052 -6.770201,5.487156 -7.697895,6.486106 l -3.6580956,3.93908 0,30.520659 c 0,1.394489 1.0703836,2.517128 2.3999636,2.517128 l 43.199338,0 c 1.329578,0 2.399962,-1.122639 2.399962,-2.517128 z"/>
 <rect style="opacity:0.15" width="48" height="3" x="8" y="24"/>
 <rect style="fill:#4f4f4f" width="8" height="14" x="10" y="6" rx="1.425" ry="1.531"/>
 <rect style="fill:#956a42" width="14" height="22" x="13" y="32" rx="2.1" ry="2.062"/>
 <path style="fill:#956a42" d="m 37.541636,32 c -1.937581,0 -3.541667,1.604086 -3.541667,3.541664 l 0,9.916669 C 33.999969,47.395912 35.604055,49 37.541636,49 l 9.916667,0 c 1.937578,0 3.541666,-1.604088 3.541666,-3.541667 l 0,-9.916669 C 50.999969,33.604086 49.395881,32 47.458303,32 l -9.916667,0 z"/>
 <path style="fill:#c2eeff" d="M 37.687502,35.000216 C 37.282843,35.000216 37,35.283057 37,35.687717 l 0,9.624997 c 0,0.40466 0.282843,0.687501 0.687502,0.687501 l 9.624996,0 C 47.717157,46.000215 48,45.717374 48,45.312714 l 0,-9.624997 c 0,-0.40466 -0.282843,-0.687501 -0.687502,-0.687501 l -9.624996,0 z"/>
 <circle style="opacity:0.2" cx="23.5" cy="43.5" r="1.5"/>
 <circle style="fill:#ffffff" cx="23.5" cy="42.5" r="1.5"/>
 <path style="opacity:0.05" d="m 12.422354,20.333205 c -0.816858,0.678913 -1.48837,1.254527 -1.756198,1.529504 l -3.837417,3.938472 0,-1.362841 5.593615,0 z"/>
 <path style="opacity:0.15" d="M 16.999908,15.47351 C 15.612294,16.426498 12.950714,18.383911 11,19.895418 l 0,4.105135 5.999908,0 z"/>
 <path style="opacity:0.05" d="m 22.999816,11.73715 -5.223553,3.201035 c -0.139854,0.08572 -0.522996,0.361324 -0.776355,0.535325 l 0,8.527043 5.999908,0 z"/>
 <path style="opacity:0.15" d="m 28.999724,8.0581475 -5.999908,3.6790025 0,12.263403 5.999908,0 z"/>
 <path style="opacity:0.05" d="m 32.406897,5.9687356 -3.407173,2.0894119 0,15.9424055 5.999908,0 0,-16.3165877 z"/>
 <path style="opacity:0.15" d="m 34.999632,7.6839653 0,16.3165877 5.999908,0 0,-12.350803 z"/>
 <path style="opacity:0.05" d="m 40.99954,11.64975 0,12.350803 5.999907,0 0,-8.644486 c -0.706661,-0.437471 -1.304294,-0.758564 -1.625951,-0.813914 z"/>
 <path style="opacity:0.15" d="m 46.999447,15.356067 0,8.644486 5.999908,0 0,-4.285399 C 51.297953,18.364367 48.75967,16.445763 46.999447,15.356067 Z"/>
 <path style="opacity:0.05" d="m 51.577661,20.152942 0,4.285398 5.593615,0 0,0.966809 -4.102349,-3.941203 C 52.83095,21.235379 52.266705,20.739727 51.577661,20.152942 Z"/>
 <path style="fill:none;stroke:#5d5d5d;stroke-width:6;stroke-linecap:round;stroke-linejoin:round" d="M 32.000008,5.0008442 7.0003838,25.000537"/>
 <path style="fill:none;stroke:#5d5d5d;stroke-width:6;stroke-linecap:round;stroke-linejoin:round" d="M 32,5.0008442 56.999616,25.000537"/>
 <path style="opacity:0.1;fill:#ffffff" d="M 11.425781 6 C 10.63625 6 10 6.6831846 10 7.53125 L 10 8.53125 C 10 7.6831846 10.63625 7 11.425781 7 L 16.574219 7 C 17.36375 7 18 7.6831846 18 8.53125 L 18 7.53125 C 18 6.6831846 17.36375 6 16.574219 6 L 11.425781 6 z"/>
 <path style="opacity:0.1;fill:#ffffff;fill-rule:evenodd" d="M 31.933594 1.9746094 A 3.0003 3.0003 0 0 0 29.744141 2.9628906 L 5.1269531 22.658203 A 3.0003 3.0003 0 0 0 4.0175781 25.525391 A 3.0003 3.0003 0 0 1 5.1269531 23.658203 L 29.744141 3.9628906 A 3.0003 3.0003 0 0 1 31.933594 2.9746094 A 3.0003 3.0003 0 0 1 31.960938 2.9765625 A 3.0003 3.0003 0 0 1 31.976562 2.9746094 A 3.0003 3.0003 0 0 1 34.257812 3.9628906 L 58.873047 23.658203 A 3.0003 3.0003 0 0 1 59.982422 25.527344 A 3.0003 3.0003 0 0 0 58.873047 22.658203 L 34.257812 2.9628906 A 3.0003 3.0003 0 0 0 31.976562 1.9746094 A 3.0003 3.0003 0 0 0 31.960938 1.9765625 A 3.0003 3.0003 0 0 0 31.933594 1.9746094 z"/>
</svg>
